svgs/sharp-light/subscript.svg

<svg xmlns="http://www.w3.org/2000/svg" viewBox="0 0 512 512"><!--! Font Awesome Pro 6.6.0 by @fontawesome - https://fontawesome.com License - https://fontawesome.com/license (Commercial License) Copyright 2024 Fonticons, Inc. --><path d="M16 64L0 64 0 96l16 0 39.2 0L157 256 55.2 416 16 416 0 416l0 32 16 0 48 0 8.8 0 4.7-7.4L176 285.8l98.5 154.8 4.7 7.4 8.8 0 48 0 16 0 0-32-16 0-39.2 0L195 256 296.8 96 336 96l16 0 0-32-16 0-48 0-8.8 0-4.7 7.4L176 226.2 77.5 71.4 72.8 64 64 64 16 64zM400 320l-16 0 0 32 16 0 32 0 0 128-32 0-16 0 0 32 16 0 48 0 48 0 16 0 0-32-16 0-32 0 0-144 0-16-16 0-48 0z"/></svg>

<svg xmlns="http://www.w3.org/2000/svg" viewBox="0 0 512 512"><!--! Font Awesome Pro 6.4.2 by @fontawesome - https://fontawesome.com License - https://fontawesome.com/license (Commercial License) Copyright 2023 Fonticons, Inc. --><path d="M16 64H0V96H16 55.2L157 256 55.2 416H16 0v32H16 64h8.8l4.7-7.4L176 285.8l98.5 154.8 4.7 7.4H288h48 16V416H336 296.8L195 256 296.8 96H336h16V64H336 288h-8.8l-4.7 7.4L176 226.2 77.5 71.4 72.8 64H64 16zM400 320H384v32h16 32V480H400 384v32h16 48 48 16V480H496 464V336 320H448 400z"/></svg>
